!!!OTL@@DE: Gretelein
!!!COM: K&uuml;cken, Friedrich
!!!OMD: Andantino
!!!LYR: Hecker, L.
!!!OCL: Erk, Ludwig
!!!GCO: Deutscher Liederschatz, Band 1
**kern	**kern	**kern
*staff3	*staff2	*staff1
*Ipiano	*Ipiano	*Ivox
*>[I,A,A]	*>[I,A,A]	*>[I,A,A]
*>norep[I,A]	*>norep[I,A]	*>norep[I,A]
*>I	*>I	*>I
*clefF4	*clefG2	*clefG2
*k[f#c#g#]	*k[f#c#g#]	*k[f#c#g#]
*A:	*A:	*A:
*M3/4	*M3/4	*M3/4
*MM72	*MM72	*MM72
4r	(8a/L	4r
.	8g#/J)	.
=1	=1	=1
*^	*	*
8c#'/L	4AA\ 4E\	8gn'\ 8ee'\L	2.r
8B#'/J	.	8f#'\ 8dd#'\J	.
4c#'/	4r	4g'\ 4ee'\	.
4ryy	8AA'\ 8E'\ 8c#'\	8g'\ 8cc#'\ 8aa'\	.
.	8r	8r	.
*v	*v	*	*
=2	=2	=2
*	*^	*
6D\ 6A\ [6f#\	(12aa/L	6a\ 6dd\	2.r
.	12ff#/	.	.
12d\ 12f#\]	12ee/J	12a\	.
8d\ 8f#\	8dd/)	8a\	.
*	*v	*v	*
8r	8r	.
4r	(8f#/L	.
.	8fn/J)	.
=3	=3	=3
*^	*^	*
*	*	*	*^	*
8G#'/L	4EE\ 4BB\	8b'/L	8d'\L	2e/	2.r
8F##'/J	.	8a#'/J	8c#'\J	.	.
4ryy	4r	4b/	4r/	.	.
*	*	*	*v	*v	*
4G#'/	8EE'/ 8BB'/ 8G#'/	8d'/ 8g#'/ 8ee'/	4d'\	.
.	16r	16r	.	.
.	16E\	16B/ 16d/ 16e/ 16g#/	.	.
*v	*v	*	*	*
*	*v	*v	*
=4	=4	=4
8AA/	8c#/ 8e/ 8a/	4r
8r	8r	.
8AA\ 8E\ 8c#\	8a\ 8cc#\ 8aa\	8r
8r;	8r;	8r;
=!|:	=!|:	=!|:
*>A	*>A	*>A
4r	4r	8e/
.	.	8a/
=5	=5	=5
(8AA'/ 8E'/L	(8A'/ 8c#'/L	8cc#\
8AA'/ 8E'/J	8A'/ 8c#'/J	8b\
4AA'/) 4E'/	4A'/) 4c#'/	4a/
4AA/ 4F#/	4A/ 4d/	8f#/
.	.	8a/
=6	=6	=6
*	*^	*
8AA'\ 8E'\ (8A'\L	(8cc#'/L	8c#\L	4.e/
8AA'\ 8E'\ 8A'\J	8b'/J	8c#\J	.
4AA'\ 4E'\ 4A'\)	4a'/	4c#\	.
.	.	.	8r
*	*v	*v	*
4AA/ 4E/	4A/ 4c#/)	8e/
.	.	8a/
=7	=7	=7
(8AA'/ 8E'/L	(8A'/ 8c#'/L	8cc#\
8AA'/ 8E'/J	8A'/ 8c#'/J	8b\
4AA'/) 4E'/	4A'/) 4c#'/	4a/
4AA/ 4F#/	4A/ 4d/	8f#/
.	.	8a/
=8	=8	=8
*	*^	*
8AA'\ 8E'\ (8A'\L	(8cc#/L	8c#\L	4.e/
8AA'\ 8E'\ 8A'\J	8b/J	8c#\J	.
4AA'\ 4E'\ 4A'\)	4a/	4c#\	.
.	.	.	8r
*	*v	*v	*
4AA/ 4E/	4A/ 4c#/)	8e/
.	.	8a/
*	*clefF4	*
=9	=9	=9
8BB/L	8E\ 8G#\ 8d\L	8g#/
8BB/J	8E\ 8G#\ 8d\J	8b\
4BB/	4E\ 4G#\ 4d\	4e/
*	*^	*
4EE/	4d/	(8F##\L	8d#/
.	.	8G#\J)	8e/
*	*v	*v	*
=10	=10	=10
8AA/L	8E\ 8A\ 8c#\L	(4f#/
8AA/J	8E\ 8A\ 8c#\J	.
4AA/	4E\ 4A\ 4c#\	8e/)
.	.	8r
*	*^	*
4AAA/ 4AA/	(8e/L	4E\ 4c#\	8e/
.	8d#/J)	.	8f#/
*	*v	*v	*
=11	=11	=11
2GGG#/ 2GG#/	8E\ 8G#\ 8c#\L	8g#/
.	8E\ 8G#\ 8c#\J	16g#/LL
.	.	16cc#/JJ
.	4E\ 4G#\ 4c#\	4g#/
*	*^	*
4GGG#/ 4GG#/	4B#/	(8F#\L	8g#/
.	.	8G#\J)	8g#/
*	*v	*v	*
=12	=12	=12
2CC#/ 2C#/	8E\ 8G#\ 8c#\L	2g#/
.	8E\ 8G#\ 8c#\J	.
.	4E\ 4G#\ 4c#\	.
*	*^	*
4BBBn/ 4BBn/	4dn/	(8G#\L	8g#/
.	.	8E\J)	8g#/
*	*v	*v	*
=13	=13	=13
8AAA/ 8AA/L	8E\ 8A\ 8c#\L	8.b\
8AAA/ 8AA/J	8E\ 8A\ 8c#\J	.
.	.	16a/
4AAA/ 4AA/	4E\ 4A\ 4c#\	4e/
*	*^	*
4FFF#/ 4FF#/	4e/	(8A#\L	8a#/
.	.	8F#\J)	8a#/
*	*v	*v	*
=14	=14	=14
8BBB/ 8BB/L	8F#\ 8B\ 8d\L	8.cc#\
8BBB/ 8BB/J	8F#\ 8B\ 8d\J	.
.	.	16b\
4BBB/ 4BB/	4F#\ 4B\ 4d\	(4b\
*	*clefG2	*
*	*^	*
4DD/	[4A\ 4B\	(8f#/L	(8f#/)
.	.	8fn/J)	&(8b\&)
*	*v	*v	*
=15	=15	=15
*^	*^	*
*	*	*	*^	*
8r	2.EE\	(2e/	8c#\L	8A\]	2e/)
*	*	*	*v	*v	*
(8C#/L	.	.	8A\	.
8D/	.	.	8B\	.
8E/	.	.	8c#\	.
8D#/	.	8f#/L	8B#\	8f#/
8Dn/J)	.	8g#/J)	8Bn\J	8g#/
=16	=16	=16	=16	=16
4AA\	4C#/	4a/	4A\	4a/
*	*	*v	*v	*
2ryy	4AAA/	4r	4r
.	4r	4r	(8.e/
.	.	.	16f#/
*v	*v	*	*
*	*clefF4	*
=17	=17	=17
2.AAA/ 2.AA/	8r	4e/
.	(8E\	.
.	8A\ 8c#\L	4cc#^\
.	8E\	.
.	8A\ 8c#\	4cc#^\
.	8E\J)	.
=18	=18	=18
2.EEE/ 2.EE/	8r	8cc#^\L
.	(8E\	8ee^\
.	8G#\ 8d\L	8dd^\
.	8E\	&(8a#^\J&)
.	8G#\ 8d\	4b\)
.	8E\J)	.
=19	=19	=19
2.EE/ 2.BB/	8r	(4e/
.	(8E\	.
.	8G#\ 8d\L	4dd\
.	8E\	.
.	8G#\ 8d\	4dd^\
.	8E\J)	.
=20	=20	=20
2.AAA/ 2.AA/	8r	8dd#^\L
.	(8E\	8ff#^\
.	8A\ 8c#\L	8ee^\
.	8E\	&(8cc#\J&)
.	8A\ 8c#\	4a/)
.	8E\J)	.
=21	=21	=21
2GGGn/ 2GGn/	8r	(8.e/L
.	(8E\	.
.	.	16cc#/Jk)
.	8A\ 8c#\L	4cc#\
.	8E\	.
4FFF#/ 4FF#/	8A#\ 8e\	(8.dd\L
.	8F#\J)	.
.	.	16cc#\Jk)
=22	=22	=22
2BBB;/ 2BB;/	8r	(8cc#'^\
.	[8F#\	8b'^\
*	*^	*
.	4B/ 4d/	4F#\]	(4ff#\)
4r	4ryy	4r	8b\)
.	.	.	8cc#\
*	*v	*v	*
=23	=23	=23
2EE/ 2BB/	2G#\ 2d\	(4ee\
.	.	8dd\)
.	.	8r
4r	4r	8f#/L
.	.	8g#/J
=24	=24	=24
4.AAA/ 4.AA/	4.E\ 4.A\ 4.c#\	4.a/
*	*clefG2	*
8r	8r	8r
4r	(8a/L	4r
.	8g#/J)	.
=25	=25	=25
*^	*^	*
8c#'/L	4AA\ 4E\	8ee'/L	8gn'\L	2.r
8B#'/J	.	8dd#'/J	8f#'\J	.
4c#'/	4r	4ee'/	4g'\	.
8c#/	8AA\ 8E\	8aa/	8g\ 8cc#\	.
8r	8r	8r	8r	.
*v	*v	*	*	*
=26	=26	=26	=26
6D\ 6A\ [6f#\	(12aa'/L	6a\ 6dd\	2.r
.	12ff#'/	.	.
12d\ 12f#\]	12ee'/J)	12a\	.
8d\ 8f#\	8dd/	8a\	.
*	*v	*v	*
8r	8r	.
4r	(8f#/L	.
.	8fn/J)	.
=27	=27	=27
*^	*^	*
*	*	*	*^	*
8G#'/L	4EE\ 4BB\	8b'/L	8d'\L	2e/	2.r
8F##'/J	.	8a#'/J	8c#'\J	.	.
4ryy	4r	4b'/	4ryy	.	.
*	*	*	*v	*v	*
4G#'/	8EE/ 8BB/ 8G#/	8d/ 8g#/ 8ee/	4d'\	.
.	16r	16r	.	.
.	16E\	16B/ 16d/ 16e/ 16g#/	.	.
*v	*v	*	*	*
*	*v	*v	*
=28	=28	=28
4AA/	4c#/ 4e/ 4a/	4r
8AAA/	8r	8r
8r	8r	8r
==:|!	==:|!	==:|!
*-	*-	*-
!!!ENC: Craig Stuart Sapp
!!!END: 2004/06/05/
!!!EFL: 087/651
